X:5
%%NRChange 2019-04-30
T:Anders och Moomin
L:1/8
M:3/4
R: Waltz
K:G
Q: 1/4=120
P:A
 D2 | "G"G2 GA Bc | "Em"d2 dc BA | "Am"G2 GF ED | "C"E4 
D2 | "G"G2 GA Bc | "Em"d2 dc BA | "Am"G2 GB AF | "D7"F2 G2 :| 
P:B
|: z A | "Em"B2 BA GA | B2 BA GA | B2 BA GF | "C"E4 
"D"D2 | "G"G2 GA Bc | "Em"d2 dc BA | "Am"G2 GB AF | "D7"F2  "(G)"G2 :|

